X:1024
T:Ar martolod en e vagig
C:anon.
O:France
A:Breton
Z:Transcribed by Franck Rouquie'
F:http://abc.musicaviva.com/tunes/france/ar-martolod/ar-martolod.abc
%Posted c. June 10th 2000 at abcusers by Franck Rouquie'
M:2/4
L:1/8
Q:128
K:Gm
% F sharp too
z G GG | ^FGA^F | G4 | z B BB |
ABcA | G3 ^F/A/ | G4 | z G GG |
^FGAF | G4 | z B BB | ABcA |
G3 ^F/A/ | G4 || z G d>c | BAGA |
B2 A2- | A G d>c | BA (3GAB |
B A3 | z G GG | ^FGAF | G4 |
z B BB | ABcA | G3 ^F/A/ |
d4 | z B AG | edce | d2 ^F | G4 ||
W:
W:
W:  From Musica Viva - http://www.musicaviva.com
W:  the Internet center for free sheet music downloads.
